X: 283
T: Benim Gülüm Benim Nazlım
C: Neşet Ertaş
O: Turkey
F: http://compmusic.upf.edu/node/140
N: hicaz-humayun--turku--sofyan--benim_gulum--kirsehir
N: makam= hicaz-humayun
N: form= turku
N: usul= sofyan = 4/4
M: 4/4
L: 1/16
K: C _7/8B ^c  
Q: 1/4=76
%%MIDI tuningsystem comma53
z2d2 d2dd d2fe eddc  | c2d2 d2dd ddfe eddc  | 
w:   |   | 
z2ef f2ff e2f2 f2e{f}d  | z2ef fefe eefe f2e{f}d  | 
w:   |   | 
z2fe fe3 ed3 {e}dcdc  | c2de ed3 {e}dc3 {d}cBcB  | 
w:   |   | 
z2dd dc3 cB2B BB2A  | G2cc cB2B B3/2A/AA AABA  | 
w:   |   | 
G2cc cB2B B3/2A/AA AGA2  | z2ef ff3 ef2f {g}f2ed  | 
w:   |  Be nim  gü lüm  be nim  *  *  naz lım    | 
z2ef ff3 f2ff {g}f2ed  | z2ef f2f2 ef2f f2ed  | 
w:  Has re ti  i çim de  giz *  *  lim    |  Hi lal  kaş lım  gü neş  *  göz lüm    | 
z2ef fe3 {f}ed3 {e}dcdc  | z2e2 ed3 {e}dc3 {d}cBcB  | 
w:  Gel  *  gel  *  *  gel  *  *  gel   |  gel  gel  *  *  gel  *  *  gel   | 
z2cd dc3 {d}cB3 B3A  | G2c2 cBBA A2A2 AABA  | 
w:  gel  *  gel  *  *  gel  *  gel   |  *  gel  gay *  rı  *  *  gel   SAZ  | 
G2cc cB3 B3/2A/AA AGA2  | z2ef ff3 ef2f {g}f2ed  | 
w:   |  Be nim  gü lüm  be nim  *  *  naz lım    | 
z2ef ff3 f2ff {g}f2ed  | z2ef f2f2 ef2f f2ed  | 
w:  Has re ti  i çim de  giz *  *  lim    |  Hi lal  kaş lım  gü neş  *  göz lüm    | 
z2ef fe3 {f}ed3 {e}dcdc  | z2e2 ed3 {e}dc3 {d}cBcB  | 
w:  Gel  *  gel  *  *  gel  *  *  gel   |  gel  gel  *  *  gel  *  *  gel   | 
z2cd dc3 {d}cB3 B3A  | G2c2 cBBA A2A2 AABA  | 
w:  gel  *  gel  *  *  gel  *  gel   |  *  gel  gay *  rı  *  *  gel   SAZ  | 
G2cc cB3 B3/2A/AA AGA2  | z2cd d2d2 dcfe eddc  | 
w:   |  Gül  be niz lim  fi dan  *  boy *  *  lum    | 
z2cd d2d2 d2fe eddc  | z2cd dd3 ddfe eddc  | 
w:  Hoş soh bet lim  tat lı  huy *  *  lum    |  Mec nû nu na  ger çek  *  ley *  *  lim    | 
z2ef fe3 {f}ed3 {e}dcdc  | z2e2 ed3 dc3 cBcB  | 
w:  Gel  *  gel  *  *  gel  *  *  gel   |  gel  gel  *  gel  *  gel   | 
z2d2 dc3 {d}cB3 B3A  | G2c2 cBBA A2A2 AABA  | \
w:  gel  gel  *  *  gel  *  gel   |  *  gel  gay *  rı  *  *  gel   SAZ  | 
G2c2 cBBA A2AA AABA  | 
w:   | 
G2cc cBBA A2AA AAA2  | z2cd d2d2 dcfe eddc  | 
w:   |  Gül  be niz lim  fi dan  *  boy *  *  lum    | 
z2cd d2d2 d2fe eddc  | z2cd dd3 ddfe eddc  | 
w:  Hoş soh bet lim  tat lı  huy *  *  lum    |  Mec nû nu na  ger çek  *  ley *  *  lim    | 
z2ef fe3 {f}ed3 {e}dcdc  | z2e2 ed3 dc3 cBcB  | 
w:  Gel  *  gel  *  *  gel  *  *  gel   |  gel  gel  *  gel  *  gel   | 
z2d2 dc3 {d}cB3 B3A  | G2c2 cBBA A2A2 AABA  | \
w:  gel  gel  *  *  gel  *  gel   |  *  gel  gay *  rı  *  *  gel   SAZ  | 
G2c2 cBBA A2AA AABA  | 
w:   | 
G2cc cBBA A2AA AAA2  | |


